MonoPhotoSepiaLUT.cube
# A Sepia Toned Monochrome LUT
# Created by Timo Heidutzek
# https://github.com/trzyglow
# This LUT is not to be sold commercially.
# If you were asked to pay for this LUT, you were scammed.
# Version 1.0
# Licensed under CC-BY-SA-4.0
TITLE MonoPhotoSepiaLUT
LUT_3D_SIZE 5
0.000000 0.000000 0.000000
0.062745 0.050980 0.039216
0.137255 0.109804 0.090196
0.215686 0.176471 0.145098
0.286275 0.239216 0.200000
0.090196 0.074510 0.058824
0.109804 0.090196 0.070588
0.184314 0.149020 0.121569
0.262745 0.215686 0.176471
0.325490 0.274510 0.231373
0.200000 0.160784 0.129412
0.211765 0.172549 0.141176
0.231373 0.188235 0.152941
0.301961 0.250980 0.207843
0.364706 0.309804 0.262745
0.301961 0.250980 0.207843
0.313725 0.262745 0.219608
0.325490 0.274510 0.231373
0.341176 0.286275 0.239216
0.403922 0.345098 0.294118
0.392157 0.333333 0.282353
0.407843 0.349020 0.298039
0.419608 0.360784 0.309804
0.427451 0.368627 0.317647
0.443137 0.384314 0.333333
0.050980 0.043137 0.035294
0.070588 0.058824 0.047059
0.141176 0.113725 0.094118
0.219608 0.180392 0.149020
0.286275 0.239216 0.200000
0.101961 0.082353 0.062745
0.286275 0.239216 0.200000
0.356863 0.301961 0.254902
0.427451 0.368627 0.317647
0.490196 0.427451 0.372549
0.203922 0.164706 0.133333
0.384314 0.325490 0.278431
0.403922 0.345098 0.294118
0.474510 0.411765 0.356863
0.533333 0.474510 0.415686
0.305882 0.254902 0.211765
0.486275 0.423529 0.368627
0.498039 0.435294 0.380392
0.513725 0.450980 0.396078
0.564706 0.505882 0.454902
0.400000 0.341176 0.290196
0.564706 0.501961 0.447059
0.572549 0.517647 0.470588
0.580392 0.529412 0.478431
0.584314 0.537255 0.490196
0.125490 0.098039 0.078431
0.137255 0.109804 0.090196
0.152941 0.121569 0.098039
0.223529 0.184314 0.152941
0.294118 0.247059 0.207843
0.164706 0.133333 0.109804
0.349020 0.294118 0.247059
0.364706 0.309804 0.262745
0.435294 0.376471 0.325490
0.498039 0.435294 0.380392
0.211765 0.172549 0.141176
0.396078 0.337255 0.286275
0.560784 0.498039 0.443137
0.607843 0.564706 0.521569
0.654902 0.623529 0.592157
0.309804 0.258824 0.215686
0.494118 0.431373 0.376471
0.627451 0.592157 0.556863
0.643137 0.611765 0.580392
0.690196 0.666667 0.643137
0.400000 0.341176 0.290196
0.568627 0.513725 0.458824
0.694118 0.670588 0.647059
0.705882 0.686275 0.666667
0.717647 0.698039 0.678431
0.188235 0.152941 0.125490
0.207843 0.168627 0.137255
0.215686 0.176471 0.145098
0.231373 0.188235 0.152941
0.301961 0.250980 0.207843
0.235294 0.192157 0.156863
0.411765 0.352941 0.301961
0.431373 0.372549 0.321569
0.443137 0.384314 0.333333
0.501961 0.439216 0.384314
0.274510 0.227451 0.188235
0.454902 0.396078 0.345098
0.603922 0.560784 0.517647
0.619608 0.580392 0.541176
0.662745 0.631373 0.600000
0.317647 0.266667 0.223529
0.498039 0.435294 0.380392
0.639216 0.603922 0.568627
0.772549 0.760784 0.749020
0.823529 0.815686 0.811765
0.407843 0.349020 0.298039
0.568627 0.513725 0.466667
0.701961 0.682353 0.662745
0.847059 0.843137 0.835294
0.862745 0.854902 0.850980
0.254902 0.211765 0.176471
0.266667 0.219608 0.180392
0.278431 0.231373 0.192157
0.286275 0.239216 0.200000
0.301961 0.250980 0.207843
0.294118 0.247059 0.207843
0.466667 0.407843 0.356863
0.486275 0.423529 0.368627
0.498039 0.435294 0.380392
0.501961 0.439216 0.384314
0.337255 0.282353 0.235294
0.509804 0.447059 0.392157
0.643137 0.611765 0.580392
0.658824 0.627451 0.596078
0.666667 0.639216 0.611765
0.372549 0.317647 0.270588
0.549020 0.486275 0.431373
0.674510 0.650980 0.627451
0.819608 0.815686 0.803922
0.835294 0.831373 0.823529
0.415686 0.356863 0.305882
0.568627 0.513725 0.466667
0.701961 0.682353 0.662745
0.854902 0.847059 0.843137
1.000000 1.000000 1.000000
