MonoPhotoSepiaLUT.cube
# A Sepia Toned Monochrome LUT
# Created by Timo Heidutzek
# https://github.com/trzyglow
# This LUT is not to be sold commercially.
# If you were asked to pay for this LUT, you were scammed.
# Version 1.0
# Licensed under CC-BY-SA-4.0
TITLE MonoPhotoSepiaLUT
LUT_3D_SIZE 25
0.000000 0.000000 0.000000
0.003922 0.003922 0.000000
0.007843 0.007843 0.007843
0.023529 0.019608 0.015686
0.039216 0.031373 0.023529
0.050980 0.039216 0.031373
0.062745 0.050980 0.039216
0.078431 0.062745 0.047059
0.090196 0.074510 0.058824
0.105882 0.086275 0.066667
0.113725 0.090196 0.074510
0.125490 0.098039 0.078431
0.137255 0.109804 0.090196
0.152941 0.121569 0.098039
0.164706 0.133333 0.109804
0.180392 0.145098 0.117647
0.196078 0.156863 0.125490
0.207843 0.168627 0.137255
0.215686 0.176471 0.145098
0.231373 0.188235 0.152941
0.243137 0.200000 0.164706
0.254902 0.211765 0.176471
0.266667 0.219608 0.180392
0.282353 0.235294 0.196078
0.286275 0.239216 0.200000
0.007843 0.003922 0.003922
0.007843 0.003922 0.003922
0.023529 0.015686 0.011765
0.027451 0.023529 0.019608
0.050980 0.039216 0.031373
0.058824 0.047059 0.035294
0.066667 0.054902 0.043137
0.082353 0.066667 0.050980
0.101961 0.082353 0.062745
0.109804 0.090196 0.070588
0.121569 0.094118 0.074510
0.133333 0.105882 0.086275
0.149020 0.117647 0.094118
0.160784 0.129412 0.105882
0.176471 0.141176 0.113725
0.188235 0.152941 0.125490
0.200000 0.160784 0.129412
0.211765 0.172549 0.141176
0.223529 0.184314 0.152941
0.239216 0.196078 0.160784
0.250980 0.207843 0.172549
0.266667 0.219608 0.180392
0.274510 0.227451 0.188235
0.286275 0.239216 0.200000
0.294118 0.243137 0.200000
0.023529 0.015686 0.011765
0.023529 0.019608 0.015686
0.023529 0.019608 0.015686
0.035294 0.027451 0.023529
0.050980 0.043137 0.035294
0.062745 0.050980 0.039216
0.078431 0.062745 0.047059
0.090196 0.074510 0.058824
0.105882 0.086275 0.066667
0.113725 0.090196 0.074510
0.129412 0.101961 0.082353
0.137255 0.109804 0.090196
0.152941 0.121569 0.098039
0.164706 0.133333 0.109804
0.180392 0.145098 0.117647
0.196078 0.156863 0.125490
0.207843 0.168627 0.137255
0.219608 0.180392 0.149020
0.231373 0.188235 0.152941
0.243137 0.200000 0.164706
0.254902 0.211765 0.176471
0.270588 0.223529 0.184314
0.278431 0.231373 0.192157
0.294118 0.247059 0.207843
0.301961 0.250980 0.207843
0.039216 0.031373 0.023529
0.039216 0.031373 0.023529
0.039216 0.031373 0.023529
0.050980 0.039216 0.031373
0.062745 0.050980 0.039216
0.070588 0.058824 0.047059
0.082353 0.066667 0.050980
0.094118 0.078431 0.062745
0.109804 0.090196 0.070588
0.121569 0.094118 0.074510
0.133333 0.105882 0.086275
0.149020 0.117647 0.094118
0.160784 0.129412 0.105882
0.176471 0.141176 0.113725
0.188235 0.152941 0.125490
0.200000 0.160784 0.129412
0.211765 0.172549 0.141176
0.223529 0.184314 0.152941
0.239216 0.196078 0.160784
0.250980 0.207843 0.172549
0.266667 0.219608 0.180392
0.278431 0.231373 0.192157
0.286275 0.239216 0.200000
0.301961 0.250980 0.207843
0.305882 0.254902 0.211765
0.058824 0.047059 0.035294
0.062745 0.050980 0.039216
0.062745 0.050980 0.039216
0.066667 0.054902 0.043137
0.066667 0.054902 0.043137
0.078431 0.062745 0.047059
0.090196 0.074510 0.058824
0.105882 0.086275 0.066667
0.113725 0.090196 0.074510
0.129412 0.101961 0.082353
0.141176 0.113725 0.094118
0.156863 0.125490 0.101961
0.164706 0.133333 0.109804
0.180392 0.145098 0.117647
0.196078 0.156863 0.125490
0.207843 0.168627 0.137255
0.219608 0.180392 0.149020
0.235294 0.192157 0.156863
0.243137 0.200000 0.164706
0.254902 0.211765 0.176471
0.270588 0.223529 0.184314
0.282353 0.235294 0.196078
0.294118 0.243137 0.200000
0.309804 0.258824 0.215686
0.313725 0.262745 0.219608
0.070588 0.058824 0.047059
0.078431 0.062745 0.047059
0.078431 0.062745 0.047059
0.082353 0.066667 0.050980
0.082353 0.066667 0.050980
0.086275 0.070588 0.054902
0.101961 0.082353 0.062745
0.109804 0.090196 0.070588
0.125490 0.098039 0.078431
0.137255 0.109804 0.090196
0.149020 0.117647 0.094118
0.164706 0.133333 0.109804
0.176471 0.141176 0.113725
0.188235 0.152941 0.125490
0.203922 0.164706 0.133333
0.211765 0.172549 0.141176
0.231373 0.188235 0.152941
0.239216 0.196078 0.160784
0.250980 0.207843 0.172549
0.266667 0.219608 0.180392
0.278431 0.231373 0.192157
0.294118 0.243137 0.200000
0.301961 0.250980 0.207843
0.313725 0.262745 0.219608
0.317647 0.266667 0.223529
0.090196 0.074510 0.058824
0.094118 0.078431 0.062745
0.094118 0.078431 0.062745
0.101961 0.082353 0.062745
0.101961 0.082353 0.062745
0.105882 0.086275 0.066667
0.109804 0.090196 0.070588
0.113725 0.090196 0.074510
0.133333 0.105882 0.086275
0.149020 0.117647 0.094118
0.156863 0.125490 0.101961
0.172549 0.137255 0.109804
0.184314 0.149020 0.121569
0.196078 0.156863 0.125490
0.211765 0.172549 0.141176
0.219608 0.180392 0.149020
0.239216 0.196078 0.160784
0.247059 0.203922 0.168627
0.262745 0.215686 0.176471
0.270588 0.223529 0.184314
0.282353 0.235294 0.196078
0.294118 0.247059 0.207843
0.309804 0.258824 0.215686
0.325490 0.270588 0.223529
0.325490 0.274510 0.231373
0.109804 0.090196 0.070588
0.109804 0.090196 0.070588
0.109804 0.090196 0.070588
0.113725 0.090196 0.074510
0.113725 0.090196 0.074510
0.121569 0.094118 0.074510
0.121569 0.094118 0.074510
0.125490 0.098039 0.078431
0.137255 0.109804 0.090196
0.149020 0.117647 0.094118
0.160784 0.129412 0.105882
0.180392 0.145098 0.117647
0.188235 0.152941 0.125490
0.203922 0.164706 0.133333
0.215686 0.176471 0.145098
0.231373 0.188235 0.152941
0.243137 0.200000 0.164706
0.250980 0.207843 0.172549
0.266667 0.219608 0.180392
0.278431 0.231373 0.192157
0.294118 0.243137 0.200000
0.305882 0.254902 0.211765
0.313725 0.262745 0.219608
0.325490 0.274510 0.231373
0.329412 0.278431 0.235294
0.129412 0.101961 0.082353
0.133333 0.105882 0.086275
0.133333 0.105882 0.086275
0.133333 0.105882 0.086275
0.137255 0.109804 0.090196
0.137255 0.109804 0.090196
0.141176 0.113725 0.094118
0.141176 0.113725 0.094118
0.149020 0.117647 0.094118
0.156863 0.125490 0.101961
0.172549 0.137255 0.109804
0.184314 0.149020 0.121569
0.200000 0.160784 0.129412
0.207843 0.168627 0.137255
0.219608 0.180392 0.149020
0.235294 0.192157 0.156863
0.250980 0.207843 0.172549
0.262745 0.215686 0.176471
0.274510 0.227451 0.188235
0.282353 0.235294 0.196078
0.294118 0.247059 0.207843
0.309804 0.258824 0.215686
0.325490 0.270588 0.223529
0.337255 0.282353 0.235294
0.341176 0.286275 0.239216
0.149020 0.117647 0.094118
0.152941 0.121569 0.098039
0.152941 0.121569 0.098039
0.152941 0.121569 0.098039
0.156863 0.125490 0.101961
0.156863 0.125490 0.101961
0.160784 0.129412 0.105882
0.160784 0.129412 0.105882
0.164706 0.133333 0.109804
0.164706 0.133333 0.109804
0.176471 0.141176 0.113725
0.196078 0.156863 0.125490
0.203922 0.164706 0.133333
0.215686 0.176471 0.145098
0.231373 0.188235 0.152941
0.243137 0.200000 0.164706
0.254902 0.211765 0.176471
0.266667 0.219608 0.180392
0.278431 0.231373 0.192157
0.294118 0.243137 0.200000
0.305882 0.254902 0.211765
0.317647 0.266667 0.223529
0.325490 0.274510 0.231373
0.345098 0.290196 0.243137
0.345098 0.290196 0.243137
0.160784 0.129412 0.105882
0.164706 0.133333 0.109804
0.164706 0.133333 0.109804
0.164706 0.133333 0.109804
0.172549 0.137255 0.109804
0.172549 0.137255 0.109804
0.176471 0.141176 0.113725
0.176471 0.141176 0.113725
0.180392 0.145098 0.117647
0.180392 0.145098 0.117647
0.184314 0.149020 0.121569
0.200000 0.160784 0.129412
0.211765 0.172549 0.141176
0.219608 0.180392 0.149020
0.239216 0.196078 0.160784
0.247059 0.203922 0.168627
0.262745 0.215686 0.176471
0.274510 0.227451 0.188235
0.282353 0.235294 0.196078
0.294118 0.247059 0.207843
0.309804 0.258824 0.215686
0.325490 0.270588 0.223529
0.337255 0.282353 0.235294
0.349020 0.294118 0.247059
0.352941 0.298039 0.250980
0.184314 0.149020 0.121569
0.184314 0.149020 0.121569
0.188235 0.152941 0.125490
0.188235 0.152941 0.125490
0.196078 0.156863 0.125490
0.196078 0.156863 0.125490
0.196078 0.156863 0.125490
0.200000 0.160784 0.129412
0.200000 0.160784 0.129412
0.203922 0.164706 0.133333
0.203922 0.164706 0.133333
0.207843 0.168627 0.137255
0.215686 0.176471 0.145098
0.231373 0.188235 0.152941
0.243137 0.200000 0.164706
0.254902 0.211765 0.176471
0.270588 0.223529 0.184314
0.282353 0.235294 0.196078
0.294118 0.243137 0.200000
0.305882 0.254902 0.211765
0.317647 0.266667 0.223529
0.329412 0.278431 0.235294
0.345098 0.290196 0.243137
0.356863 0.301961 0.254902
0.356863 0.301961 0.254902
0.200000 0.160784 0.129412
0.203922 0.164706 0.133333
0.203922 0.164706 0.133333
0.207843 0.168627 0.137255
0.207843 0.168627 0.137255
0.211765 0.172549 0.141176
0.211765 0.172549 0.141176
0.215686 0.176471 0.145098
0.215686 0.176471 0.145098
0.215686 0.176471 0.145098
0.219608 0.180392 0.149020
0.223529 0.184314 0.152941
0.231373 0.188235 0.152941
0.239216 0.196078 0.160784
0.250980 0.207843 0.172549
0.266667 0.219608 0.180392
0.278431 0.231373 0.192157
0.286275 0.239216 0.200000
0.301961 0.250980 0.207843
0.313725 0.262745 0.219608
0.325490 0.274510 0.231373
0.337255 0.282353 0.235294
0.349020 0.294118 0.247059
0.360784 0.305882 0.258824
0.364706 0.309804 0.262745
0.215686 0.176471 0.145098
0.215686 0.176471 0.145098
0.219608 0.180392 0.149020
0.219608 0.180392 0.149020
0.223529 0.184314 0.152941
0.223529 0.184314 0.152941
0.231373 0.188235 0.152941
0.231373 0.188235 0.152941
0.235294 0.192157 0.156863
0.235294 0.192157 0.156863
0.239216 0.196078 0.160784
0.239216 0.196078 0.160784
0.243137 0.200000 0.164706
0.247059 0.203922 0.168627
0.254902 0.211765 0.176471
0.270588 0.223529 0.184314
0.282353 0.235294 0.196078
0.294118 0.247059 0.207843
0.305882 0.254902 0.211765
0.317647 0.266667 0.223529
0.329412 0.278431 0.235294
0.345098 0.290196 0.243137
0.356863 0.301961 0.254902
0.368627 0.313725 0.266667
0.368627 0.313725 0.266667
0.239216 0.196078 0.160784
0.239216 0.196078 0.160784
0.239216 0.196078 0.160784
0.243137 0.200000 0.164706
0.243137 0.200000 0.164706
0.247059 0.203922 0.168627
0.247059 0.203922 0.168627
0.250980 0.207843 0.172549
0.250980 0.207843 0.172549
0.254902 0.211765 0.176471
0.254902 0.211765 0.176471
0.262745 0.215686 0.176471
0.262745 0.215686 0.176471
0.262745 0.215686 0.176471
0.266667 0.219608 0.180392
0.278431 0.231373 0.192157
0.294118 0.243137 0.200000
0.301961 0.250980 0.207843
0.313725 0.262745 0.219608
0.325490 0.274510 0.231373
0.341176 0.286275 0.239216
0.352941 0.298039 0.250980
0.360784 0.305882 0.258824
0.372549 0.317647 0.270588
0.380392 0.321569 0.270588
0.254902 0.211765 0.176471
0.254902 0.211765 0.176471
0.254902 0.211765 0.176471
0.262745 0.215686 0.176471
0.262745 0.215686 0.176471
0.266667 0.219608 0.180392
0.266667 0.219608 0.180392
0.270588 0.223529 0.184314
0.270588 0.223529 0.184314
0.274510 0.227451 0.188235
0.274510 0.227451 0.188235
0.274510 0.227451 0.188235
0.278431 0.231373 0.192157
0.278431 0.231373 0.192157
0.282353 0.235294 0.196078
0.286275 0.239216 0.200000
0.294118 0.247059 0.207843
0.305882 0.254902 0.211765
0.317647 0.266667 0.223529
0.329412 0.278431 0.235294
0.345098 0.290196 0.243137
0.356863 0.301961 0.254902
0.368627 0.313725 0.266667
0.384314 0.325490 0.278431
0.388235 0.329412 0.278431
0.270588 0.223529 0.184314
0.274510 0.227451 0.188235
0.274510 0.227451 0.188235
0.278431 0.231373 0.192157
0.278431 0.231373 0.192157
0.282353 0.235294 0.196078
0.282353 0.235294 0.196078
0.286275 0.239216 0.200000
0.286275 0.239216 0.200000
0.294118 0.243137 0.200000
0.294118 0.243137 0.200000
0.294118 0.243137 0.200000
0.294118 0.247059 0.207843
0.294118 0.247059 0.207843
0.301961 0.250980 0.207843
0.301961 0.250980 0.207843
0.305882 0.254902 0.211765
0.313725 0.262745 0.219608
0.325490 0.274510 0.231373
0.341176 0.286275 0.239216
0.352941 0.298039 0.250980
0.364706 0.309804 0.262745
0.372549 0.317647 0.270588
0.388235 0.329412 0.278431
0.392157 0.333333 0.282353
0.286275 0.239216 0.200000
0.294118 0.243137 0.200000
0.294118 0.243137 0.200000
0.294118 0.247059 0.207843
0.294118 0.247059 0.207843
0.301961 0.250980 0.207843
0.301961 0.250980 0.207843
0.305882 0.254902 0.211765
0.305882 0.254902 0.211765
0.305882 0.254902 0.211765
0.309804 0.258824 0.215686
0.309804 0.258824 0.215686
0.313725 0.262745 0.219608
0.313725 0.262745 0.219608
0.317647 0.266667 0.223529
0.317647 0.266667 0.223529
0.325490 0.270588 0.223529
0.325490 0.270588 0.223529
0.329412 0.278431 0.235294
0.345098 0.290196 0.243137
0.356863 0.301961 0.254902
0.368627 0.313725 0.266667
0.384314 0.325490 0.278431
0.396078 0.337255 0.286275
0.400000 0.341176 0.290196
0.301961 0.250980 0.207843
0.305882 0.254902 0.211765
0.305882 0.254902 0.211765
0.309804 0.258824 0.215686
0.309804 0.258824 0.215686
0.313725 0.262745 0.219608
0.313725 0.262745 0.219608
0.317647 0.266667 0.223529
0.317647 0.266667 0.223529
0.317647 0.266667 0.223529
0.325490 0.270588 0.223529
0.325490 0.274510 0.231373
0.325490 0.274510 0.231373
0.329412 0.278431 0.235294
0.329412 0.278431 0.235294
0.337255 0.282353 0.235294
0.337255 0.282353 0.235294
0.337255 0.282353 0.235294
0.341176 0.286275 0.239216
0.352941 0.298039 0.250980
0.364706 0.309804 0.262745
0.380392 0.321569 0.270588
0.388235 0.329412 0.278431
0.400000 0.341176 0.290196
0.403922 0.345098 0.294118
0.317647 0.266667 0.223529
0.325490 0.270588 0.223529
0.325490 0.270588 0.223529
0.325490 0.274510 0.231373
0.325490 0.274510 0.231373
0.329412 0.278431 0.235294
0.329412 0.278431 0.235294
0.337255 0.282353 0.235294
0.337255 0.282353 0.235294
0.341176 0.286275 0.239216
0.341176 0.286275 0.239216
0.345098 0.290196 0.243137
0.345098 0.290196 0.243137
0.349020 0.294118 0.247059
0.349020 0.294118 0.247059
0.352941 0.298039 0.250980
0.352941 0.298039 0.250980
0.352941 0.298039 0.250980
0.356863 0.301961 0.254902
0.360784 0.305882 0.258824
0.368627 0.313725 0.266667
0.384314 0.325490 0.278431
0.396078 0.337255 0.286275
0.411765 0.352941 0.301961
0.415686 0.356863 0.305882
0.337255 0.282353 0.235294
0.341176 0.286275 0.239216
0.341176 0.286275 0.239216
0.345098 0.290196 0.243137
0.345098 0.290196 0.243137
0.345098 0.290196 0.243137
0.349020 0.294118 0.247059
0.352941 0.298039 0.250980
0.352941 0.298039 0.250980
0.356863 0.301961 0.254902
0.356863 0.301961 0.254902
0.360784 0.305882 0.258824
0.360784 0.305882 0.258824
0.360784 0.305882 0.258824
0.364706 0.309804 0.262745
0.364706 0.309804 0.262745
0.368627 0.313725 0.266667
0.368627 0.313725 0.266667
0.372549 0.317647 0.270588
0.372549 0.317647 0.270588
0.380392 0.321569 0.270588
0.392157 0.333333 0.282353
0.400000 0.341176 0.290196
0.415686 0.356863 0.305882
0.419608 0.360784 0.309804
0.356863 0.301961 0.254902
0.360784 0.305882 0.258824
0.360784 0.305882 0.258824
0.360784 0.305882 0.258824
0.364706 0.309804 0.262745
0.364706 0.309804 0.262745
0.368627 0.313725 0.266667
0.368627 0.313725 0.266667
0.372549 0.317647 0.270588
0.372549 0.317647 0.270588
0.380392 0.321569 0.270588
0.380392 0.321569 0.270588
0.384314 0.325490 0.278431
0.384314 0.325490 0.278431
0.384314 0.325490 0.278431
0.388235 0.329412 0.278431
0.388235 0.329412 0.278431
0.392157 0.333333 0.282353
0.392157 0.333333 0.282353
0.396078 0.337255 0.286275
0.396078 0.337255 0.286275
0.400000 0.341176 0.290196
0.407843 0.349020 0.298039
0.423529 0.364706 0.313725
0.427451 0.368627 0.317647
0.368627 0.313725 0.266667
0.372549 0.317647 0.270588
0.372549 0.317647 0.270588
0.372549 0.317647 0.270588
0.380392 0.321569 0.270588
0.380392 0.321569 0.270588
0.384314 0.325490 0.278431
0.384314 0.325490 0.278431
0.388235 0.329412 0.278431
0.388235 0.329412 0.278431
0.392157 0.333333 0.282353
0.392157 0.333333 0.282353
0.396078 0.337255 0.286275
0.396078 0.337255 0.286275
0.400000 0.341176 0.290196
0.400000 0.341176 0.290196
0.403922 0.345098 0.294118
0.403922 0.345098 0.294118
0.407843 0.349020 0.298039
0.411765 0.352941 0.301961
0.411765 0.352941 0.301961
0.415686 0.356863 0.305882
0.415686 0.356863 0.305882
0.431373 0.372549 0.321569
0.431373 0.372549 0.321569
0.392157 0.333333 0.282353
0.392157 0.333333 0.282353
0.396078 0.337255 0.286275
0.396078 0.337255 0.286275
0.400000 0.341176 0.290196
0.400000 0.341176 0.290196
0.403922 0.345098 0.294118
0.403922 0.345098 0.294118
0.403922 0.345098 0.294118
0.411765 0.352941 0.301961
0.411765 0.352941 0.301961
0.415686 0.356863 0.305882
0.415686 0.356863 0.305882
0.415686 0.356863 0.305882
0.419608 0.360784 0.309804
0.419608 0.360784 0.309804
0.423529 0.364706 0.313725
0.423529 0.364706 0.313725
0.427451 0.368627 0.317647
0.427451 0.368627 0.317647
0.431373 0.372549 0.321569
0.431373 0.372549 0.321569
0.435294 0.376471 0.325490
0.439216 0.376471 0.329412
0.439216 0.376471 0.329412
0.392157 0.333333 0.282353
0.396078 0.337255 0.286275
0.400000 0.341176 0.290196
0.400000 0.341176 0.290196
0.400000 0.341176 0.290196
0.403922 0.345098 0.294118
0.407843 0.349020 0.298039
0.407843 0.349020 0.298039
0.407843 0.349020 0.298039
0.415686 0.356863 0.305882
0.415686 0.356863 0.305882
0.415686 0.356863 0.305882
0.419608 0.360784 0.309804
0.419608 0.360784 0.309804
0.423529 0.364706 0.313725
0.427451 0.368627 0.317647
0.427451 0.368627 0.317647
0.427451 0.368627 0.317647
0.427451 0.368627 0.317647
0.431373 0.372549 0.321569
0.435294 0.376471 0.325490
0.435294 0.376471 0.325490
0.435294 0.376471 0.325490
0.439216 0.376471 0.329412
0.443137 0.384314 0.333333
0.000000 0.000000 0.000000
0.003922 0.003922 0.000000
0.015686 0.011765 0.011765
0.023529 0.019608 0.015686
0.039216 0.031373 0.023529
0.050980 0.039216 0.031373
0.062745 0.050980 0.039216
0.078431 0.062745 0.047059
0.090196 0.074510 0.058824
0.105882 0.086275 0.066667
0.113725 0.090196 0.074510
0.129412 0.101961 0.082353
0.141176 0.113725 0.094118
0.152941 0.121569 0.098039
0.164706 0.133333 0.109804
0.180392 0.145098 0.117647
0.196078 0.156863 0.125490
0.207843 0.168627 0.137255
0.215686 0.176471 0.145098
0.235294 0.192157 0.156863
0.243137 0.200000 0.164706
0.254902 0.211765 0.176471
0.266667 0.219608 0.180392
0.282353 0.235294 0.196078
0.286275 0.239216 0.200000
0.007843 0.003922 0.003922
0.043137 0.035294 0.027451
0.050980 0.043137 0.035294
0.062745 0.050980 0.039216
0.078431 0.062745 0.047059
0.090196 0.074510 0.058824
0.101961 0.082353 0.062745
0.109804 0.090196 0.070588
0.129412 0.101961 0.082353
0.137255 0.109804 0.090196
0.152941 0.121569 0.098039
0.164706 0.133333 0.109804
0.180392 0.145098 0.117647
0.188235 0.152941 0.125490
0.203922 0.164706 0.133333
0.215686 0.176471 0.145098
0.231373 0.188235 0.152941
0.243137 0.200000 0.164706
0.254902 0.211765 0.176471
0.270588 0.223529 0.184314
0.278431 0.231373 0.192157
0.294118 0.243137 0.200000
0.305882 0.254902 0.211765
0.313725 0.262745 0.219608
0.317647 0.266667 0.223529
0.023529 0.019608 0.015686
0.050980 0.043137 0.035294
0.058824 0.047059 0.035294
0.070588 0.058824 0.047059
0.082353 0.066667 0.050980
0.094118 0.078431 0.062745
0.109804 0.090196 0.070588
0.121569 0.094118 0.074510
0.133333 0.105882 0.086275
0.149020 0.117647 0.094118
0.156863 0.125490 0.101961
0.176471 0.141176 0.113725
0.188235 0.152941 0.125490
0.200000 0.160784 0.129412
0.211765 0.172549 0.141176
0.223529 0.184314 0.152941
0.239216 0.196078 0.160784
0.247059 0.203922 0.168627
0.262745 0.215686 0.176471
0.274510 0.227451 0.188235
0.286275 0.239216 0.200000
0.301961 0.250980 0.207843
0.313725 0.262745 0.219608
0.325490 0.274510 0.231373
0.325490 0.274510 0.231373
0.039216 0.031373 0.023529
0.070588 0.058824 0.047059
0.078431 0.062745 0.047059
0.082353 0.066667 0.050980
0.090196 0.074510 0.058824
0.105882 0.086275 0.066667
0.113725 0.090196 0.074510
0.129412 0.101961 0.082353
0.141176 0.113725 0.094118
0.156863 0.125490 0.101961
0.164706 0.133333 0.109804
0.180392 0.145098 0.117647
0.196078 0.156863 0.125490
0.207843 0.168627 0.137255
0.215686 0.176471 0.145098
0.231373 0.188235 0.152941
0.247059 0.203922 0.168627
0.254902 0.211765 0.176471
0.270588 0.223529 0.184314
0.282353 0.235294 0.196078
0.294118 0.243137 0.200000
0.309804 0.258824 0.215686
0.325490 0.270588 0.223529
0.329412 0.278431 0.235294
0.329412 0.278431 0.235294
0.058824 0.047059 0.035294
0.086275 0.070588 0.054902
0.090196 0.074510 0.058824
0.090196 0.074510 0.058824
0.101961 0.082353 0.062745
0.109804 0.090196 0.070588
0.121569 0.094118 0.074510
0.133333 0.105882 0.086275
0.149020 0.117647 0.094118
0.160784 0.129412 0.105882
0.172549 0.137255 0.109804
0.188235 0.152941 0.125490
0.203922 0.164706 0.133333
0.211765 0.172549 0.141176
0.223529 0.184314 0.152941
0.239216 0.196078 0.160784
0.250980 0.207843 0.172549
0.266667 0.219608 0.180392
0.274510 0.227451 0.188235
0.286275 0.239216 0.200000
0.301961 0.250980 0.207843
0.313725 0.262745 0.219608
0.325490 0.274510 0.231373
0.337255 0.282353 0.235294
0.337255 0.282353 0.235294
0.078431 0.062745 0.047059
0.109804 0.090196 0.070588
0.109804 0.090196 0.070588
0.113725 0.090196 0.074510
0.113725 0.090196 0.074510
0.121569 0.094118 0.074510
0.129412 0.101961 0.082353
0.141176 0.113725 0.094118
0.156863 0.125490 0.101961
0.172549 0.137255 0.109804
0.180392 0.145098 0.117647
0.196078 0.156863 0.125490
0.207843 0.168627 0.137255
0.219608 0.180392 0.149020
0.231373 0.188235 0.152941
0.243137 0.200000 0.164706
0.262745 0.215686 0.176471
0.270588 0.223529 0.184314
0.282353 0.235294 0.196078
0.294118 0.247059 0.207843
0.305882 0.254902 0.211765
0.325490 0.270588 0.223529
0.337255 0.282353 0.235294
0.345098 0.290196 0.243137
0.345098 0.290196 0.243137
0.094118 0.078431 0.062745
0.125490 0.098039 0.078431
0.129412 0.101961 0.082353
0.129412 0.101961 0.082353
0.133333 0.105882 0.086275
0.133333 0.105882 0.086275
0.137255 0.109804 0.090196
0.149020 0.117647 0.094118
0.160784 0.129412 0.105882
0.176471 0.141176 0.113725
0.188235 0.152941 0.125490
0.203922 0.164706 0.133333
0.215686 0.176471 0.145098
0.231373 0.188235 0.152941
0.239216 0.196078 0.160784
0.250980 0.207843 0.172549
0.266667 0.219608 0.180392
0.278431 0.231373 0.192157
0.286275 0.239216 0.200000
0.301961 0.250980 0.207843
0.313725 0.262745 0.219608
0.325490 0.274510 0.231373
0.341176 0.286275 0.239216
0.352941 0.298039 0.250980
0.352941 0.298039 0.250980
0.109804 0.090196 0.070588
0.141176 0.113725 0.094118
0.149020 0.117647 0.094118
0.149020 0.117647 0.094118
0.152941 0.121569 0.098039
0.152941 0.121569 0.098039
0.152941 0.121569 0.098039
0.156863 0.125490 0.101961
0.172549 0.137255 0.109804
0.184314 0.149020 0.121569
0.196078 0.156863 0.125490
0.211765 0.172549 0.141176
0.219608 0.180392 0.149020
0.235294 0.192157 0.156863
0.247059 0.203922 0.168627
0.254902 0.211765 0.176471
0.274510 0.227451 0.188235
0.286275 0.239216 0.200000
0.294118 0.247059 0.207843
0.309804 0.258824 0.215686
0.325490 0.270588 0.223529
0.337255 0.282353 0.235294
0.349020 0.294118 0.247059
0.356863 0.301961 0.254902
0.356863 0.301961 0.254902
0.129412 0.101961 0.082353
0.160784 0.129412 0.105882
0.164706 0.133333 0.109804
0.164706 0.133333 0.109804
0.164706 0.133333 0.109804
0.172549 0.137255 0.109804
0.172549 0.137255 0.109804
0.176471 0.141176 0.113725
0.180392 0.145098 0.117647
0.188235 0.152941 0.125490
0.203922 0.164706 0.133333
0.215686 0.176471 0.145098
0.231373 0.188235 0.152941
0.243137 0.200000 0.164706
0.250980 0.207843 0.172549
0.266667 0.219608 0.180392
0.278431 0.231373 0.192157
0.294118 0.243137 0.200000
0.305882 0.254902 0.211765
0.317647 0.266667 0.223529
0.325490 0.274510 0.231373
0.345098 0.290196 0.243137
0.352941 0.298039 0.250980
0.364706 0.309804 0.262745
0.364706 0.309804 0.262745
0.149020 0.117647 0.094118
0.180392 0.145098 0.117647
0.184314 0.149020 0.121569
0.184314 0.149020 0.121569
0.184314 0.149020 0.121569
0.188235 0.152941 0.125490
0.188235 0.152941 0.125490
0.196078 0.156863 0.125490
0.196078 0.156863 0.125490
0.203922 0.164706 0.133333
0.207843 0.168627 0.137255
0.219608 0.180392 0.149020
0.239216 0.196078 0.160784
0.247059 0.203922 0.168627
0.254902 0.211765 0.176471
0.270588 0.223529 0.184314
0.286275 0.239216 0.200000
0.301961 0.250980 0.207843
0.309804 0.258824 0.215686
0.325490 0.270588 0.223529
0.337255 0.282353 0.235294
0.349020 0.294118 0.247059
0.360784 0.305882 0.258824
0.368627 0.313725 0.266667
0.368627 0.313725 0.266667
0.160784 0.129412 0.105882
0.196078 0.156863 0.125490
0.200000 0.160784 0.129412
