MonoPhotoSepiaLUT.cube
# A Sepia Toned Monochrome LUT
# Created by Timo Heidutzek
# https://github.com/trzyglow
# This LUT is not to be sold commercially.
# If you were asked to pay for this LUT, you were scammed.
# Version 1.0
# Licensed under CC-BY-SA-4.0
TITLE MonoPhotoSepiaLUT
LUT_3D_SIZE 9
0.000000 0.000000 0.000000
0.023529 0.019608 0.015686
0.062745 0.050980 0.039216
0.105882 0.086275 0.066667
0.137255 0.109804 0.090196
0.180392 0.145098 0.117647
0.215686 0.176471 0.145098
0.254902 0.211765 0.176471
0.286275 0.239216 0.200000
0.039216 0.031373 0.023529
0.050980 0.039216 0.031373
0.082353 0.066667 0.050980
0.121569 0.094118 0.074510
0.160784 0.129412 0.105882
0.200000 0.160784 0.129412
0.239216 0.196078 0.160784
0.278431 0.231373 0.192157
0.305882 0.254902 0.211765
0.090196 0.074510 0.058824
0.101961 0.082353 0.062745
0.109804 0.090196 0.070588
0.149020 0.117647 0.094118
0.184314 0.149020 0.121569
0.219608 0.180392 0.149020
0.262745 0.215686 0.176471
0.294118 0.247059 0.207843
0.325490 0.274510 0.231373
0.149020 0.117647 0.094118
0.152941 0.121569 0.098039
0.160784 0.129412 0.105882
0.164706 0.133333 0.109804
0.203922 0.164706 0.133333
0.243137 0.200000 0.164706
0.278431 0.231373 0.192157
0.317647 0.266667 0.223529
0.345098 0.290196 0.243137
0.200000 0.160784 0.129412
0.207843 0.168627 0.137255
0.211765 0.172549 0.141176
0.215686 0.176471 0.145098
0.231373 0.188235 0.152941
0.266667 0.219608 0.180392
0.301961 0.250980 0.207843
0.337255 0.282353 0.235294
0.364706 0.309804 0.262745
0.254902 0.211765 0.176471
0.262745 0.215686 0.176471
0.266667 0.219608 0.180392
0.274510 0.227451 0.188235
0.278431 0.231373 0.192157
0.286275 0.239216 0.200000
0.317647 0.266667 0.223529
0.356863 0.301961 0.254902
0.388235 0.329412 0.278431
0.301961 0.250980 0.207843
0.309804 0.258824 0.215686
0.313725 0.262745 0.219608
0.317647 0.266667 0.223529
0.325490 0.274510 0.231373
0.337255 0.282353 0.235294
0.341176 0.286275 0.239216
0.380392 0.321569 0.270588
0.403922 0.345098 0.294118
0.356863 0.301961 0.254902
0.360784 0.305882 0.258824
0.368627 0.313725 0.266667
0.372549 0.317647 0.270588
0.384314 0.325490 0.278431
0.388235 0.329412 0.278431
0.392157 0.333333 0.282353
0.400000 0.341176 0.290196
0.427451 0.368627 0.317647
0.392157 0.333333 0.282353
0.400000 0.341176 0.290196
0.407843 0.349020 0.298039
0.415686 0.356863 0.305882
0.419608 0.360784 0.309804
0.427451 0.368627 0.317647
0.427451 0.368627 0.317647
0.435294 0.376471 0.325490
0.443137 0.384314 0.333333
0.023529 0.015686 0.011765
0.023529 0.019608 0.015686
0.066667 0.054902 0.043137
0.105882 0.086275 0.066667
0.141176 0.113725 0.094118
0.180392 0.145098 0.117647
0.215686 0.176471 0.145098
0.262745 0.215686 0.176471
0.286275 0.239216 0.200000
0.039216 0.031373 0.023529
0.137255 0.109804 0.090196
0.172549 0.137255 0.109804
0.211765 0.172549 0.141176
0.250980 0.207843 0.172549
0.282353 0.235294 0.196078
0.325490 0.274510 0.231373
0.360784 0.305882 0.258824
0.388235 0.329412 0.278431
0.094118 0.078431 0.062745
0.188235 0.152941 0.125490
0.200000 0.160784 0.129412
0.235294 0.192157 0.156863
0.274510 0.227451 0.188235
0.309804 0.258824 0.215686
0.349020 0.294118 0.247059
0.384314 0.325490 0.278431
0.411765 0.352941 0.301961
0.152941 0.121569 0.098039
0.239216 0.196078 0.160784
0.250980 0.207843 0.172549
0.254902 0.211765 0.176471
0.294118 0.247059 0.207843
0.329412 0.278431 0.235294
0.368627 0.313725 0.266667
0.403922 0.345098 0.294118
0.431373 0.372549 0.321569
0.203922 0.164706 0.133333
0.294118 0.243137 0.200000
0.301961 0.250980 0.207843
0.309804 0.258824 0.215686
0.313725 0.262745 0.219608
0.349020 0.294118 0.247059
0.388235 0.329412 0.278431
0.423529 0.364706 0.313725
0.450980 0.392157 0.341176
0.254902 0.211765 0.176471
0.345098 0.290196 0.243137
0.352941 0.298039 0.250980
0.356863 0.301961 0.254902
0.360784 0.305882 0.258824
0.368627 0.313725 0.266667
0.407843 0.349020 0.298039
0.443137 0.384314 0.333333
0.466667 0.407843 0.356863
0.305882 0.254902 0.211765
0.396078 0.337255 0.286275
0.403922 0.345098 0.294118
0.411765 0.352941 0.301961
0.415686 0.356863 0.305882
0.423529 0.364706 0.313725
0.431373 0.372549 0.321569
0.462745 0.400000 0.345098
0.490196 0.427451 0.372549
0.360784 0.305882 0.258824
0.443137 0.384314 0.333333
0.450980 0.392157 0.341176
0.462745 0.400000 0.345098
0.462745 0.403922 0.352941
0.466667 0.407843 0.356863
0.478431 0.415686 0.360784
0.486275 0.423529 0.368627
0.509804 0.447059 0.392157
0.392157 0.333333 0.282353
0.482353 0.419608 0.364706
0.490196 0.427451 0.372549
0.494118 0.431373 0.376471
0.501961 0.439216 0.384314
0.505882 0.443137 0.388235
0.509804 0.447059 0.392157
0.517647 0.454902 0.400000
0.521569 0.458824 0.403922
0.050980 0.043137 0.035294
0.062745 0.050980 0.039216
0.070588 0.058824 0.047059
0.109804 0.090196 0.070588
0.141176 0.113725 0.094118
0.184314 0.149020 0.121569
0.219608 0.180392 0.149020
0.262745 0.215686 0.176471
0.286275 0.239216 0.200000
0.078431 0.062745 0.047059
0.164706 0.133333 0.109804
0.180392 0.145098 0.117647
0.215686 0.176471 0.145098
0.250980 0.207843 0.172549
0.294118 0.243137 0.200000
0.325490 0.274510 0.231373
0.364706 0.309804 0.262745
0.392157 0.333333 0.282353
0.101961 0.082353 0.062745
0.196078 0.156863 0.125490
0.286275 0.239216 0.200000
0.317647 0.266667 0.223529
0.356863 0.301961 0.254902
0.392157 0.333333 0.282353
0.427451 0.368627 0.317647
0.462745 0.403922 0.352941
0.490196 0.427451 0.372549
0.152941 0.121569 0.098039
0.247059 0.203922 0.168627
0.329412 0.278431 0.235294
0.349020 0.294118 0.247059
0.380392 0.321569 0.270588
0.415686 0.356863 0.305882
0.450980 0.392157 0.341176
0.490196 0.427451 0.372549
0.513725 0.450980 0.396078
0.203922 0.164706 0.133333
0.301961 0.250980 0.207843
0.384314 0.325490 0.278431
0.396078 0.337255 0.286275
0.403922 0.345098 0.294118
0.435294 0.376471 0.325490
0.474510 0.411765 0.356863
0.509804 0.447059 0.392157
0.533333 0.474510 0.415686
0.254902 0.211765 0.176471
0.345098 0.290196 0.243137
0.431373 0.372549 0.321569
0.443137 0.384314 0.333333
0.450980 0.388235 0.333333
0.454902 0.396078 0.345098
0.490196 0.427451 0.372549
0.525490 0.462745 0.407843
0.549020 0.486275 0.431373
0.305882 0.254902 0.211765
0.400000 0.341176 0.290196
0.486275 0.423529 0.368627
0.494118 0.431373 0.376471
0.498039 0.435294 0.380392
0.505882 0.443137 0.388235
0.513725 0.450980 0.396078
0.545098 0.482353 0.427451
0.564706 0.505882 0.454902
0.360784 0.305882 0.258824
0.450980 0.388235 0.333333
0.533333 0.474510 0.415686
0.541176 0.478431 0.423529
0.545098 0.482353 0.427451
0.552941 0.494118 0.435294
0.556863 0.498039 0.439216
0.564706 0.501961 0.447059
0.576471 0.521569 0.474510
0.400000 0.341176 0.290196
0.486275 0.423529 0.368627
0.564706 0.501961 0.447059
0.568627 0.513725 0.458824
0.572549 0.517647 0.470588
0.576471 0.521569 0.474510
0.580392 0.529412 0.478431
0.584314 0.537255 0.490196
0.584314 0.537255 0.490196
0.090196 0.074510 0.058824
0.094118 0.078431 0.062745
0.105882 0.086275 0.066667
0.109804 0.090196 0.070588
0.149020 0.117647 0.094118
0.184314 0.149020 0.121569
0.219608 0.180392 0.149020
0.266667 0.219608 0.180392
0.286275 0.239216 0.200000
0.109804 0.090196 0.070588
0.203922 0.164706 0.133333
0.211765 0.172549 0.141176
0.219608 0.180392 0.149020
0.254902 0.211765 0.176471
0.294118 0.243137 0.200000
0.329412 0.278431 0.235294
0.368627 0.313725 0.266667
0.392157 0.333333 0.282353
0.129412 0.101961 0.082353
0.223529 0.184314 0.152941
0.313725 0.262745 0.219608
0.325490 0.274510 0.231373
0.360784 0.305882 0.258824
0.396078 0.337255 0.286275
0.435294 0.376471 0.325490
0.474510 0.411765 0.356863
0.498039 0.435294 0.380392
0.152941 0.121569 0.098039
0.247059 0.203922 0.168627
0.345098 0.290196 0.243137
0.427451 0.368627 0.317647
0.462745 0.400000 0.345098
0.494118 0.431373 0.376471
0.529412 0.466667 0.411765
0.560784 0.498039 0.443137
0.580392 0.529412 0.478431
0.203922 0.164706 0.133333
0.301961 0.250980 0.207843
0.392157 0.333333 0.282353
0.478431 0.415686 0.360784
0.490196 0.427451 0.372549
0.517647 0.454902 0.400000
0.552941 0.494118 0.435294
0.576471 0.521569 0.474510
0.596078 0.549020 0.509804
0.262745 0.215686 0.176471
0.349020 0.294118 0.247059
0.439216 0.376471 0.329412
0.521569 0.458824 0.403922
0.533333 0.474510 0.415686
0.541176 0.478431 0.423529
0.564706 0.505882 0.454902
0.592157 0.545098 0.498039
0.611765 0.568627 0.525490
0.309804 0.258824 0.215686
0.400000 0.341176 0.290196
0.490196 0.427451 0.372549
0.564706 0.501961 0.447059
0.568627 0.513725 0.466667
0.576471 0.521569 0.474510
0.580392 0.529412 0.478431
0.607843 0.564706 0.521569
0.627451 0.584314 0.549020
0.360784 0.305882 0.258824
0.450980 0.392157 0.341176
0.537255 0.474510 0.419608
0.596078 0.549020 0.509804
0.607843 0.564706 0.521569
0.611765 0.568627 0.525490
0.615686 0.576471 0.537255
0.623529 0.584314 0.545098
0.639216 0.603922 0.568627
0.400000 0.341176 0.290196
0.486275 0.423529 0.368627
0.564706 0.505882 0.454902
0.627451 0.584314 0.549020
0.635294 0.600000 0.564706
0.639216 0.603922 0.568627
0.643137 0.611765 0.580392
0.647059 0.615686 0.584314
0.650980 0.619608 0.588235
0.125490 0.098039 0.078431
0.129412 0.101961 0.082353
0.137255 0.109804 0.090196
0.141176 0.113725 0.094118
0.152941 0.121569 0.098039
0.188235 0.152941 0.125490
0.223529 0.184314 0.152941
0.266667 0.219608 0.180392
0.294118 0.247059 0.207843
0.141176 0.113725 0.094118
0.239216 0.196078 0.160784
0.247059 0.203922 0.168627
0.250980 0.207843 0.172549
0.262745 0.215686 0.176471
0.294118 0.247059 0.207843
0.329412 0.278431 0.235294
0.368627 0.313725 0.266667
0.400000 0.341176 0.290196
0.164706 0.133333 0.109804
0.262745 0.215686 0.176471
0.349020 0.294118 0.247059
0.356863 0.301961 0.254902
0.364706 0.309804 0.262745
0.400000 0.341176 0.290196
0.435294 0.376471 0.325490
0.478431 0.415686 0.360784
0.498039 0.435294 0.380392
0.188235 0.152941 0.125490
0.282353 0.235294 0.196078
0.372549 0.317647 0.270588
0.454902 0.396078 0.345098
0.474510 0.411765 0.356863
0.501961 0.439216 0.384314
0.533333 0.474510 0.415686
0.568627 0.513725 0.458824
0.584314 0.537255 0.490196
0.211765 0.172549 0.141176
0.305882 0.254902 0.211765
0.396078 0.337255 0.286275
0.486275 0.423529 0.368627
0.560784 0.498039 0.443137
0.584314 0.533333 0.482353
0.607843 0.564706 0.521569
0.635294 0.600000 0.564706
0.654902 0.623529 0.592157
0.262745 0.215686 0.176471
0.349020 0.294118 0.247059
0.439216 0.376471 0.329412
0.529412 0.466667 0.411765
0.592157 0.545098 0.498039
0.600000 0.556863 0.513725
0.627451 0.584314 0.549020
0.654902 0.623529 0.592157
0.674510 0.647059 0.619608
0.309804 0.258824 0.215686
0.403922 0.345098 0.294118
0.494118 0.431373 0.376471
0.568627 0.513725 0.466667
0.627451 0.592157 0.556863
0.639216 0.603922 0.568627
0.643137 0.611765 0.580392
0.670588 0.643137 0.615686
0.690196 0.666667 0.643137
0.364706 0.309804 0.262745
0.450980 0.392157 0.341176
0.541176 0.478431 0.423529
0.603922 0.560784 0.517647
0.666667 0.639216 0.611765
0.674510 0.647059 0.619608
0.682353 0.654902 0.627451
0.686275 0.662745 0.639216
0.705882 0.686275 0.666667
0.400000 0.341176 0.290196
0.490196 0.427451 0.372549
0.568627 0.513725 0.458824
0.631373 0.596078 0.560784
0.694118 0.670588 0.647059
0.701961 0.682353 0.662745
0.705882 0.686275 0.666667
0.713725 0.694118 0.674510
0.717647 0.698039 0.678431
0.156863 0.125490 0.101961
0.164706 0.133333 0.109804
0.172549 0.137255 0.109804
0.180392 0.145098 0.117647
0.184314 0.149020 0.121569
0.196078 0.156863 0.125490
0.223529 0.184314 0.152941
0.266667 0.219608 0.180392
0.294118 0.247059 0.207843
0.180392 0.145098 0.117647
0.270588 0.223529 0.184314
0.278431 0.231373 0.192157
0.286275 0.239216 0.200000
0.294118 0.243137 0.200000
0.301961 0.250980 0.207843
0.337255 0.282353 0.235294
0.368627 0.313725 0.266667
0.400000 0.341176 0.290196
0.200000 0.160784 0.129412
0.294118 0.243137 0.200000
0.380392 0.321569 0.270588
0.392157 0.333333 0.282353
0.396078 0.337255 0.286275
0.403922 0.345098 0.294118
0.439216 0.376471 0.329412
0.478431 0.415686 0.360784
0.501961 0.439216 0.384314
0.219608 0.180392 0.149020
0.313725 0.262745 0.219608
0.403922 0.345098 0.294118
0.490196 0.427451 0.372549
0.498039 0.435294 0.380392
0.505882 0.443137 0.388235
0.537255 0.474510 0.419608
0.568627 0.513725 0.458824
0.584314 0.537255 0.490196
0.243137 0.200000 0.164706
0.337255 0.282353 0.235294
0.423529 0.364706 0.313725
0.513725 0.450980 0.396078
0.580392 0.529412 0.478431
0.592157 0.545098 0.498039
0.615686 0.576471 0.537255
0.639216 0.607843 0.576471
0.662745 0.631373 0.600000
0.266667 0.219608 0.180392
0.356863 0.301961 0.254902
0.443137 0.384314 0.333333
0.533333 0.474510 0.415686
0.600000 0.556863 0.513725
0.658824 0.627451 0.596078
0.682353 0.658824 0.635294
0.709804 0.690196 0.670588
0.733333 0.721569 0.701961
0.313725 0.262745 0.219608
0.407843 0.349020 0.298039
0.494118 0.431373 0.376471
0.568627 0.513725 0.466667
0.635294 0.600000 0.564706
0.694118 0.670588 0.647059
0.705882 0.686275 0.666667
0.733333 0.721569 0.701961
0.756863 0.745098 0.733333
0.364706 0.309804 0.262745
0.454902 0.396078 0.345098
0.541176 0.478431 0.423529
0.607843 0.564706 0.521569
0.674510 0.647059 0.619608
0.733333 0.721569 0.701961
0.749020 0.733333 0.717647
0.752941 0.745098 0.729412
0.776471 0.764706 0.752941
0.400000 0.341176 0.290196
0.490196 0.427451 0.372549
0.568627 0.513725 0.458824
0.631373 0.596078 0.560784
0.701961 0.678431 0.654902
0.768627 0.756863 0.745098
0.776471 0.768627 0.760784
0.780392 0.776471 0.764706
0.784314 0.780392 0.768627
0.188235 0.152941 0.125490
0.200000 0.160784 0.129412
0.207843 0.168627 0.137255
0.211765 0.172549 0.141176
0.215686 0.176471 0.145098
0.223529 0.184314 0.152941
0.231373 0.188235 0.152941
0.270588 0.223529 0.184314
0.301961 0.250980 0.207843
0.211765 0.172549 0.141176
0.305882 0.254902 0.211765
0.313725 0.262745 0.219608
0.317647 0.266667 0.223529
0.325490 0.274510 0.231373
0.329412 0.278431 0.235294
0.341176 0.286275 0.239216
0.372549 0.317647 0.270588
0.403922 0.345098 0.294118
0.235294 0.192157 0.156863
0.325490 0.274510 0.231373
0.411765 0.352941 0.301961
0.423529 0.364706 0.313725
0.431373 0.372549 0.321569
0.435294 0.376471 0.325490
0.443137 0.384314 0.333333
0.482353 0.419608 0.364706
0.501961 0.439216 0.384314
0.250980 0.207843 0.172549
0.349020 0.294118 0.247059
0.439216 0.376471 0.329412
0.517647 0.454902 0.400000
0.529412 0.466667 0.411765
0.533333 0.474510 0.415686
0.541176 0.478431 0.423529
0.568627 0.513725 0.466667
0.584314 0.537255 0.490196
0.274510 0.227451 0.188235
0.368627 0.313725 0.266667
0.454902 0.396078 0.345098
0.541176 0.478431 0.423529
0.603922 0.560784 0.517647
0.615686 0.572549 0.529412
0.619608 0.580392 0.541176
0.643137 0.611765 0.580392
0.662745 0.631373 0.600000
0.294118 0.247059 0.207843
0.388235 0.329412 0.278431
0.478431 0.415686 0.360784
0.560784 0.498039 0.443137
0.623529 0.584314 0.545098
0.682353 0.654902 0.627451
0.694118 0.670588 0.647059
0.721569 0.701961 0.686275
0.741176 0.725490 0.709804
0.317647 0.266667 0.223529
0.411765 0.352941 0.301961
0.498039 0.435294 0.380392
0.572549 0.517647 0.470588
0.639216 0.603922 0.568627
0.701961 0.682353 0.662745
0.772549 0.760784 0.749020
0.803922 0.800000 0.788235
0.823529 0.815686 0.811765
0.368627 0.313725 0.266667
0.454902 0.396078 0.345098
0.545098 0.482353 0.427451
0.607843 0.564706 0.521569
0.674510 0.647059 0.619608
0.745098 0.729412 0.713725
0.815686 0.807843 0.800000
0.827451 0.819608 0.815686
0.850980 0.843137 0.839216
0.407843 0.349020 0.298039
0.494118 0.431373 0.376471
0.568627 0.513725 0.466667
0.635294 0.600000 0.564706
0.701961 0.682353 0.662745
0.776471 0.764706 0.752941
0.847059 0.843137 0.835294
0.858824 0.850980 0.847059
0.862745 0.854902 0.850980
0.231373 0.188235 0.152941
0.235294 0.192157 0.156863
0.239216 0.196078 0.160784
0.247059 0.203922 0.168627
0.250980 0.207843 0.172549
0.254902 0.211765 0.176471
0.266667 0.219608 0.180392
0.270588 0.223529 0.184314
0.301961 0.250980 0.207843
0.247059 0.203922 0.168627
0.337255 0.282353 0.235294
0.345098 0.290196 0.243137
0.352941 0.298039 0.250980
0.356863 0.301961 0.254902
0.360784 0.305882 0.258824
0.368627 0.313725 0.266667
0.372549 0.317647 0.270588
0.403922 0.345098 0.294118
0.270588 0.223529 0.184314
0.356863 0.301961 0.254902
0.450980 0.388235 0.333333
0.454902 0.396078 0.345098
0.462745 0.403922 0.352941
0.466667 0.407843 0.356863
0.474510 0.411765 0.356863
0.482353 0.419608 0.364706
0.501961 0.439216 0.384314
0.294118 0.243137 0.200000
0.380392 0.321569 0.270588
0.474510 0.411765 0.356863
0.549020 0.486275 0.431373
0.560784 0.498039 0.443137
0.564706 0.501961 0.447059
0.564706 0.505882 0.454902
0.568627 0.513725 0.466667
0.588235 0.537255 0.494118
0.309804 0.258824 0.215686
0.400000 0.341176 0.290196
0.490196 0.427451 0.372549
0.568627 0.513725 0.458824
0.627451 0.584314 0.549020
0.635294 0.600000 0.564706
0.639216 0.607843 0.576471
0.643137 0.611765 0.580392
0.666667 0.639216 0.611765
0.325490 0.274510 0.231373
0.419608 0.360784 0.309804
0.505882 0.443137 0.388235
0.580392 0.529412 0.478431
0.643137 0.611765 0.580392
0.701961 0.682353 0.662745
0.717647 0.698039 0.678431
0.721569 0.705882 0.690196
0.745098 0.729412 0.713725
0.349020 0.294118 0.247059
0.439216 0.376471 0.329412
0.525490 0.462745 0.407843
0.596078 0.549020 0.501961
0.662745 0.631373 0.600000
0.725490 0.713725 0.694118
0.800000 0.796078 0.784314
0.811765 0.807843 0.796078
0.835294 0.831373 0.823529
0.368627 0.313725 0.266667
0.462745 0.400000 0.345098
0.545098 0.482353 0.427451
0.611765 0.568627 0.525490
0.674510 0.650980 0.627451
0.745098 0.729412 0.713725
0.823529 0.815686 0.811765
0.898039 0.898039 0.894118
0.921569 0.917647 0.917647
0.407843 0.349020 0.298039
0.494118 0.431373 0.376471
0.568627 0.513725 0.466667
0.639216 0.603922 0.568627
0.701961 0.682353 0.662745
0.776471 0.764706 0.752941
0.854902 0.847059 0.843137
0.929412 0.925490 0.925490
0.937255 0.937255 0.933333
0.254902 0.211765 0.176471
0.254902 0.211765 0.176471
0.266667 0.219608 0.180392
0.270588 0.223529 0.184314
0.278431 0.231373 0.192157
0.282353 0.235294 0.196078
0.286275 0.239216 0.200000
0.294118 0.247059 0.207843
0.301961 0.250980 0.207843
0.274510 0.227451 0.188235
0.360784 0.305882 0.258824
0.368627 0.313725 0.266667
0.372549 0.317647 0.270588
0.384314 0.325490 0.278431
0.388235 0.329412 0.278431
0.392157 0.333333 0.282353
0.400000 0.341176 0.290196
0.403922 0.345098 0.294118
0.294118 0.247059 0.207843
0.388235 0.329412 0.278431
0.466667 0.407843 0.356863
0.482353 0.419608 0.364706
0.486275 0.423529 0.368627
0.490196 0.427451 0.372549
0.498039 0.435294 0.380392
0.501961 0.439216 0.384314
0.501961 0.439216 0.384314
0.313725 0.262745 0.219608
0.403922 0.345098 0.294118
0.494118 0.431373 0.376471
0.564706 0.505882 0.454902
0.572549 0.517647 0.470588
0.580392 0.529412 0.478431
0.584314 0.533333 0.482353
0.584314 0.537255 0.490196
0.588235 0.537255 0.494118
0.337255 0.282353 0.235294
0.427451 0.368627 0.317647
0.509804 0.447059 0.392157
0.584314 0.533333 0.482353
0.643137 0.611765 0.580392
0.654902 0.623529 0.592157
0.658824 0.627451 0.596078
0.662745 0.631373 0.600000
0.666667 0.639216 0.611765
0.356863 0.301961 0.254902
0.443137 0.384314 0.333333
0.529412 0.466667 0.411765
0.596078 0.549020 0.509804
0.662745 0.635294 0.607843
0.725490 0.713725 0.694118
0.737255 0.721569 0.705882
0.741176 0.725490 0.709804
0.745098 0.729412 0.713725
0.372549 0.317647 0.270588
0.462745 0.403922 0.352941
0.549020 0.486275 0.431373
0.611765 0.568627 0.525490
0.674510 0.650980 0.627451
0.749020 0.733333 0.717647
0.819608 0.815686 0.803922
0.831373 0.827451 0.819608
0.835294 0.831373 0.823529
0.396078 0.337255 0.286275
0.486275 0.423529 0.368627
0.564706 0.501961 0.447059
0.627451 0.584314 0.549020
0.698039 0.674510 0.650980
0.764706 0.752941 0.741176
0.843137 0.835294 0.831373
0.917647 0.913725 0.913725
0.925490 0.925490 0.921569
0.415686 0.356863 0.305882
0.494118 0.431373 0.376471
0.568627 0.513725 0.466667
0.639216 0.603922 0.568627
0.701961 0.682353 0.662745
0.776471 0.768627 0.760784
0.854902 0.847059 0.843137
0.937255 0.937255 0.933333
1.000000 1.000000 1.000000
